X:1
T:Isaac Watts, 1709 (Hymn 76, Book 2)   86. 86. (C. M.)
T:C Major Oliver Holden, 1796
T:Immanuel No copyright. Transcribed from The Union Harmony, 1796.
%%score [ 1 2 3 4 ]
L:1/8
M:2/4
K:C
V:1 treble nm="Treble" snm="Tr."
V:2 treble nm="Counter" snm="C."
V:3 treble-8 nm="Tenor" snm="T."
V:4 bass nm="Bass" snm="B."
V:1
 E2 | GG EA | G2 G2 | (A2 G)E | EG ce | d2 c2 | B4 | e2 ee | cB cd | e3 e | e/f/e/d/ ec | e2 d2 | %12
w: 1.~Ho-|san- na to the|Prince of|Light, * That|clothed * Him- *|self in|clay,|En- tered the|ir- on gates of|death, and|tore~~ _ _ _ _ the|bars a-|
 c4 |"^Death      is             no" z4 | z4 |"^more  the  king   of        dread," z4 | %16
w: way.||||
 z2 z G/A/ | BB BB | (c2 B2) | z2 G2 | cG Gc | cc cd | e3 d | c/d/c/B/ cd | cc cc | c/d/c/B/ AG | %26
w: Since *|our Im- man- uel|rose; *|He|took * the *|ty- rant's sting a-|way, And|spoiled~ _ _ _ _ our|hell- ish foes, And|spoiled~ _ _ _ _ our|
 c2 d2 | [ce]4 |] %28
w: hell- ish|foes.|
V:2
 C2 | EE CF | D2 D2 | C3 C | C2 E2 | D2 D2 | D4 | G2 GG | ED ED | C3 E | G2 G2 | G2 F2 | E4 | %13
w: 2.~See|how the Con- queror|mounts a-|loft, And|to His|Fath- er|flies;|With scars of|hon- or in His|flesh, And|tri- umph|in His|eyes.|
"^There      our           ex  --" z4 | z4 |"^- alt  -  ed   Savior        reigns," z4 | z2 z G | %17
w: |||And|
 GG GG | G4 | z2 E2 | GE DE | FF EF | G3 G | G3 G | FF EE | G2 EF | G2 F2 | E4 |] %28
w: scat- ters bles- sings|down;|Our|Je- * sus *|fills the mid- dle|seat Of|the ce-|les- tial throne, Of|the ce- *|les- tial|throne.|
V:3
 GA/B/ | cc Gc | BA GF | (F2 E)G | GE Gc | B2 A2 | G4 | c2 cc | ed cB | A3 B | c/B/c/d/ c e/d/ | %11
w: 3.~Raise * *|your de- vo- tion,|mor- * tal *|tongues, * To|reach * His *|blest a-|bode;|Sweet be the|ac- cents of your|songs To|our~ _ _ _ _ in- *|
 c2 B2 | c4 | z2 G2 | AG AB | cc cB | c3 B/c/ | dd dd | (e2 d2) | z2 c2 | ec Bc | AA AB | c3 d | %23
w: car- nate|God.|Bright|an- * * gels,|strike your lou- dest|strings, Your *|sweet- est voi- ces|raise; *|Let|heav'n * and *|all cre- a- ted|things Sound|
 e/f/e/d/ cB | AA EE | A/B/c/d/ ed | c2 B2 | c4 |] %28
w: our~ _ _ _ _ Im-|man- uel's praise, Sound|our~ _ _ _ _ Im-|man- uel's|praise.|
V:4
 C,2 | C,C, E,F, | G,2 G,,2 | C,3 C, | C,2 C,2 | D,2 D,2 | G,,4 | C,2 C,E, | A,^G, A,E, | A,,3 E, | %10
 C,3 E, | G,2 G,2 | C,4 | z2 C,2 | F,E, F,G, | E,C, E,G, | C,3 G, | G,G, G,G, | G,4 | z2 C,2 | %20
 C,2 G,2 | A,A, E,D, | C,3 G, | C3 G, | F,F, C,C, | C,2 E,F, | G,2 G,2 | C,4 |] %28

